X:1
T:The First Time Ever
M:4/4
L:1/8
K:E
 z4 z2 z B,| EF G A- A3G/2-F/2| E G, B,4 z B,|
M:3/4
 EF GF AG| B6-|c/2-B/2-A/2-G/2 A6| z G/2A/2 BE A4-| A G/2F/2 E3/2 G,/2 B,4|\
 z B,/2C/2 =D3C/2-B,/2| A,3/2 B,/2
M:4/4
| E6- EE| G,6 z B,/2C/2| =D3C/2-B,/2 A,3 B,| B,8|
